images/logo-ioc-gran.svg

<?xml version="1.0" encoding="UTF-8" standalone="no"?>
<svg width="596px" height="266px" viewBox="0 0 596 266" version="1.1" xmlns="http://www.w3.org/2000/svg" xmlns:xlink="http://www.w3.org/1999/xlink">
    <!-- Generator: Sketch 43.2 (39069) - http://www.bohemiancoding.com/sketch -->
    <title>logo_ioc_gran</title>
    <desc>Created with Sketch.</desc>
    <defs></defs>
    <g id="Page-1" stroke="none" stroke-width="1" fill="none" fill-rule="evenodd">
        <g id="Desktop-Copy-7" transform="translate(-128.000000, -369.000000)" fill-rule="nonzero">
            <g id="hero" transform="translate(0.000000, -5.000000)">
                <g id="logo_ioc_gran" transform="translate(128.000000, 374.000000)">
                    <path d="M51.2931979,42.8088033 L51.2931979,0 L0,0 L0,42.8088033 L51.2931979,42.8088033 Z M0,72.0797799 L0,261.243466 L51.2931979,261.243466 L51.2931979,72.0797799 L0,72.0797799 Z M122.814699,166.844567 C122.814699,174.406274 123.537131,181.784925 124.982017,188.980743 C126.426903,196.176561 128.895213,202.640503 132.387021,208.372765 C135.878829,214.105027 140.514436,218.678571 146.29398,222.093535 C152.073524,225.508499 159.297846,227.215956 167.967162,227.215956 C176.636478,227.215956 183.921002,225.508499 189.820954,222.093535 C195.720905,218.678571 200.416714,214.105027 203.908523,208.372765 C207.40033,202.640503 209.86864,196.176561 211.313526,188.980743 C212.758413,181.784925 213.480845,174.406274 213.480845,166.844567 C213.480845,159.28286 212.758413,151.843228 211.313526,144.525447 C209.86864,137.207666 207.40033,130.743724 203.908523,125.133425 C200.416714,119.523126 195.720905,114.949582 189.820954,111.412655 C183.921002,107.875728 176.636478,106.10729 167.967162,106.10729 C159.297846,106.10729 152.073524,107.875728 146.29398,111.412655 C140.514436,114.949582 135.878829,119.523126 132.387021,125.133425 C128.895213,130.743724 126.426903,137.207666 124.982017,144.525447 C123.537131,151.843228 122.814699,159.28286 122.814699,166.844567 Z M71.5215013,166.844567 C71.5215013,151.721153 73.8092029,138.00052 78.3846756,125.682256 C82.9601478,113.363992 89.4620374,102.87533 97.8905396,94.215956 C106.319041,85.5565819 116.433092,78.8487172 128.232995,74.0921596 C140.032897,69.3356019 153.277487,66.957359 167.967162,66.957359 C182.656836,66.957359 195.961629,69.3356019 207.881939,74.0921596 C219.802249,78.8487172 229.976502,85.5565819 238.405004,94.215956 C246.833506,102.87533 253.335395,113.363992 257.910868,125.682256 C262.48634,138.00052 264.774043,151.721153 264.774043,166.844567 C264.774043,181.96798 262.48634,195.627633 257.910868,207.823934 C253.335395,220.020235 246.833506,230.447916 238.405004,239.10729 C229.976502,247.766664 219.802249,254.413548 207.881939,259.048143 C195.961629,263.682737 182.656836,266 167.967162,266 C153.277487,266 140.032897,263.682737 128.232995,259.048143 C116.433092,254.413548 106.319041,247.766664 97.8905396,239.10729 C89.4620374,230.447916 82.9601478,220.020235 78.3846756,207.823934 C73.8092029,195.627633 71.5215013,181.96798 71.5215013,166.844567 Z M410.706802,138.671252 L460.916341,138.671252 C460.193898,126.47495 457.304169,115.925308 452.247068,107.022008 C447.189967,98.1187085 440.627875,90.679076 432.560594,84.7028886 C424.493314,78.7267011 415.342506,74.2751178 405.107897,71.3480055 C394.873287,68.4208932 384.217413,66.957359 373.139953,66.957359 C357.96865,66.957359 344.483249,69.5185442 332.683346,74.6409904 C320.883444,79.7634372 310.889798,86.8981659 302.702111,96.045392 C294.514423,105.192618 288.313547,116.047163 284.099296,128.609354 C279.885045,141.171544 277.777951,154.770216 277.777951,169.405777 C277.777951,183.553487 280.065654,196.542353 284.641126,208.372765 C289.216598,220.203177 295.598082,230.386935 303.78577,238.924347 C311.973457,247.461757 321.9069,254.108642 333.586395,258.865199 C345.265891,263.621757 358.089062,266 372.056294,266 C396.860171,266 417.208677,259.414096 433.102424,246.242091 C448.99617,233.070085 458.628599,213.922179 462,188.797799 L412.512901,188.797799 C410.827201,200.506248 406.673215,209.836279 400.050821,216.788171 C393.428426,223.740062 383.976606,227.215956 371.695074,227.215956 C363.748201,227.215956 357.005501,225.386538 351.466771,221.727648 C345.928041,218.068757 341.533245,213.373252 338.282252,207.64099 C335.031258,201.908729 332.683353,195.505766 331.238467,188.431912 C329.793581,181.358058 329.071149,174.40627 329.071149,167.576341 C329.071149,160.502486 329.793581,153.367757 331.238467,146.171939 C332.683353,138.976122 335.151664,132.390218 338.643471,126.41403 C342.135279,120.437843 346.650481,115.559396 352.18921,111.778542 C357.72794,107.997688 364.591046,106.10729 372.778733,106.10729 C394.692838,106.10729 407.335401,116.961836 410.706802,138.671252 Z" id="ioc-copy" fill="#FFFFFF"></path>
                    <polygon id="Polygon" fill-opacity="0.539999962" fill="#07FDDD" points="539 41 596 73.25 596 137.75 539 170 482 137.75 482 73.25"></polygon>
                </g>
            </g>
        </g>
    </g>
</svg>

<svg xmlns="http://www.w3.org/2000/svg" width="593" height="266" viewBox="0 0 593 266">
    <g fill="none" fill-rule="nonzero">
        <path fill="#FFF" d="M51.293 42.809V0H0v42.809h51.293zM0 72.079v189.164h51.293V72.08H0zm122.815 94.766c0 7.561.722 14.94 2.167 22.136 1.445 7.196 3.913 13.66 7.405 19.392 3.492 5.732 8.127 10.306 13.907 13.72 5.78 3.415 13.004 5.123 21.673 5.123 8.67 0 15.954-1.708 21.854-5.122 5.9-3.415 10.596-7.989 14.088-13.721 3.491-5.732 5.96-12.196 7.405-19.392 1.444-7.196 2.167-14.575 2.167-22.136 0-7.562-.723-15.002-2.167-22.32-1.445-7.317-3.914-13.781-7.405-19.392-3.492-5.61-8.188-10.183-14.088-13.72-5.9-3.537-13.185-5.306-21.854-5.306-8.67 0-15.893 1.769-21.673 5.306-5.78 3.537-10.415 8.11-13.907 13.72-3.492 5.61-5.96 12.075-7.405 19.392a114.943 114.943 0 0 0-2.167 22.32zm-51.293 0c0-15.124 2.287-28.844 6.863-41.163 4.575-12.318 11.077-22.807 19.506-31.466 8.428-8.66 18.542-15.367 30.342-20.124 11.8-4.756 25.044-7.135 39.734-7.135 14.69 0 27.995 2.379 39.915 7.135 11.92 4.757 22.095 11.465 30.523 20.124 8.429 8.66 14.93 19.148 19.506 31.466 4.575 12.319 6.863 26.04 6.863 41.163 0 15.123-2.288 28.783-6.863 40.979-4.576 12.196-11.077 22.624-19.506 31.283-8.428 8.66-18.603 15.307-30.523 19.941-11.92 4.635-25.225 6.952-39.915 6.952-14.69 0-27.934-2.317-39.734-6.952-11.8-4.634-21.914-11.281-30.342-19.94-8.429-8.66-14.93-19.088-19.506-31.284-4.576-12.196-6.863-25.856-6.863-40.98zm339.185-28.174h50.21c-.723-12.196-3.613-22.746-8.67-31.649-5.057-8.903-11.62-16.343-19.686-22.32-8.068-5.975-17.218-10.427-27.453-13.354-10.235-2.927-20.89-4.39-31.968-4.39-15.171 0-28.657 2.56-40.457 7.683-11.8 5.122-21.793 12.257-29.98 21.404-8.189 9.148-14.39 20.002-18.604 32.564-4.214 12.563-6.321 26.161-6.321 40.797 0 14.147 2.288 27.136 6.863 38.967 4.576 11.83 10.957 22.014 19.145 30.551 8.187 8.538 18.12 15.185 29.8 19.941 11.68 4.757 24.503 7.135 38.47 7.135 24.804 0 45.153-6.586 61.046-19.758 15.894-13.172 25.527-32.32 28.898-57.444h-49.487c-1.686 11.708-5.84 21.038-12.462 27.99-6.623 6.952-16.074 10.428-28.356 10.428-7.947 0-14.69-1.83-20.228-5.488-5.539-3.66-9.934-8.355-13.185-14.087-3.25-5.732-5.599-12.135-7.044-19.21-1.444-7.073-2.167-14.025-2.167-20.855 0-7.074.723-14.208 2.167-21.404 1.445-7.196 3.914-13.782 7.405-19.758 3.492-5.976 8.007-10.855 13.546-14.635 5.539-3.781 12.402-5.672 20.59-5.672 21.914 0 34.556 10.855 37.928 32.564z"/>
        <path fill="#07F8FD" d="M536 41l57 32.25v64.5L536 170l-57-32.25v-64.5z" opacity=".542"/>
    </g>
</svg>
